svgs/solid/square-e.svg

<svg xmlns="http://www.w3.org/2000/svg" viewBox="0 0 448 512"><!-- Font Awesome Pro 6.0.0-alpha2 by @fontawesome - https://fontawesome.com License - https://fontawesome.com/license (Commercial License) --><path d="M384 32H64C28.654 32 0 60.654 0 96V416C0 451.346 28.654 480 64 480H384C419.348 480 448 451.346 448 416V96C448 60.654 419.348 32 384 32ZM264 232C277.25 232 288 242.75 288 256S277.25 280 264 280H176V336H296C309.25 336 320 346.75 320 360S309.25 384 296 384H152C138.75 384 128 373.25 128 360V152C128 138.75 138.75 128 152 128H296C309.25 128 320 138.75 320 152S309.25 176 296 176H176V232H264Z"/></svg>

<svg xmlns="http://www.w3.org/2000/svg" viewBox="0 0 448 512"><!--! Font Awesome Pro 6.4.0 by @fontawesome - https://fontawesome.com License - https://fontawesome.com/license (Commercial License) Copyright 2023 Fonticons, Inc. --><path d="M64 32C28.7 32 0 60.7 0 96V416c0 35.3 28.7 64 64 64H384c35.3 0 64-28.7 64-64V96c0-35.3-28.7-64-64-64H64zm88 96H296c13.3 0 24 10.7 24 24s-10.7 24-24 24H176v56h88c13.3 0 24 10.7 24 24s-10.7 24-24 24H176v56H296c13.3 0 24 10.7 24 24s-10.7 24-24 24H152c-13.3 0-24-10.7-24-24V256 152c0-13.3 10.7-24 24-24z"/></svg>
